actions/24/tag-new.svg

<?xml version="1.0" encoding="UTF-8" standalone="no"?>
<svg
   xmlns:dc="http://purl.org/dc/elements/1.1/"
   xmlns:cc="http://creativecommons.org/ns#"
   xmlns:rdf="http://www.w3.org/1999/02/22-rdf-syntax-ns#"
   xmlns:svg="http://www.w3.org/2000/svg"
   xmlns="http://www.w3.org/2000/svg"
   xmlns:xlink="http://www.w3.org/1999/xlink"
   id="svg3277"
   height="24"
   width="24"
   version="1.1">
  <metadata
     id="metadata46">
    <rdf:RDF>
      <cc:Work
         rdf:about="">
        <dc:format>image/svg+xml</dc:format>
        <dc:type
           rdf:resource="http://purl.org/dc/dcmitype/StillImage" />
        <dc:title></dc:title>
      </cc:Work>
    </rdf:RDF>
  </metadata>
  <defs
     id="defs3279">
    <linearGradient
       gradientTransform="translate(-0.99999992,0.9994521)"
       gradientUnits="userSpaceOnUse"
       xlink:href="#linearGradient3251"
       id="linearGradient3153"
       y2="-0.02451775"
       x2="17.591623"
       y1="7"
       x1="17.591623" />
    <linearGradient
       id="linearGradient3251">
      <stop
         offset="0"
         style="stop-color:#917f6e;stop-opacity:1"
         id="stop3253" />
      <stop
         offset="1"
         style="stop-color:#cbbaa9;stop-opacity:1"
         id="stop3255" />
    </linearGradient>
    <linearGradient
       gradientTransform="translate(-25,-2.0005479)"
       gradientUnits="userSpaceOnUse"
       xlink:href="#linearGradient4222"
       id="linearGradient3156"
       y2="7.0924568"
       x2="40.006763"
       y1="12.910877"
       x1="40.006763" />
    <linearGradient
       id="linearGradient4222">
      <stop
         offset="0"
         style="stop-color:#ffffff;stop-opacity:1"
         id="stop4224" />
      <stop
         offset="1"
         style="stop-color:#ffffff;stop-opacity:0"
         id="stop4226" />
    </linearGradient>
    <linearGradient
       gradientTransform="translate(-25,-2.0005479)"
       gradientUnits="userSpaceOnUse"
       xlink:href="#linearGradient4222"
       id="linearGradient3159"
       y2="22.697742"
       x2="38.382198"
       y1="5.90625"
       x1="38.382198" />
    <linearGradient
       gradientTransform="translate(-25,-2.0005479)"
       gradientUnits="userSpaceOnUse"
       xlink:href="#linearGradient3243"
       id="linearGradient3162"
       y2="24.0341"
       x2="39.905758"
       y1="6.1230369"
       x1="39.905758" />
    <linearGradient
       id="linearGradient3243">
      <stop
         offset="0"
         style="stop-color:#fff4e9;stop-opacity:1"
         id="stop3245" />
      <stop
         offset="1"
         style="stop-color:#e7d6c5;stop-opacity:1"
         id="stop3247" />
    </linearGradient>
    <linearGradient
       gradientTransform="translate(-25,-2.0005479)"
       gradientUnits="userSpaceOnUse"
       xlink:href="#linearGradient3251"
       id="linearGradient3164"
       y2="5"
       x2="32.015705"
       y1="24.011269"
       x1="32.015705" />
    <linearGradient
       id="linearGradient3283">
      <stop
         offset="0"
         style="stop-color:#000000;stop-opacity:1"
         id="stop3285" />
      <stop
         offset="1"
         style="stop-color:#000000;stop-opacity:0"
         id="stop3287" />
    </linearGradient>
    <radialGradient
       gradientTransform="matrix(0.9767045,0,0,0.32556818,-1.2272721,12.440316)"
       gradientUnits="userSpaceOnUse"
       xlink:href="#linearGradient3283"
       id="radialGradient3275"
       fy="20.146597"
       fx="10.471204"
       r="9.2146597"
       cy="20.146597"
       cx="10.471204" />
    <radialGradient
       gradientTransform="matrix(0,0.52544994,-0.5716256,0,46.193389,-21.123812)"
       gradientUnits="userSpaceOnUse"
       xlink:href="#linearGradient3242-7-3-8-0-4-58-06"
       id="radialGradient3900-3"
       fy="48.216358"
       fx="65.297462"
       r="31.000002"
       cy="48.216358"
       cx="65.297462" />
    <linearGradient
       id="linearGradient3242-7-3-8-0-4-58-06">
      <stop
         id="stop3244-5-8-5-6-4-3-8"
         style="stop-color:#cdf87e;stop-opacity:1"
         offset="0" />
      <stop
         id="stop3246-9-5-1-5-3-0-7"
         style="stop-color:#a2e34f;stop-opacity:1"
         offset="0.26238" />
      <stop
         id="stop3248-7-2-0-7-5-35-9"
         style="stop-color:#68b723;stop-opacity:1"
         offset="0.66093999" />
      <stop
         id="stop3250-8-2-8-5-6-40-4"
         style="stop-color:#1d7e0d;stop-opacity:1"
         offset="1" />
    </linearGradient>
    <linearGradient
       gradientTransform="matrix(0.2817955,0,0,0.2800956,12.196562,12.014885)"
       gradientUnits="userSpaceOnUse"
       xlink:href="#linearGradient4154-0"
       id="linearGradient3030-13"
       y2="35.62291"
       x2="24.138529"
       y1="10.631441"
       x1="24.138529" />
    <linearGradient
       id="linearGradient4154-0">
      <stop
         offset="0"
         style="stop-color:#ffffff;stop-opacity:1"
         id="stop4156-1" />
      <stop
         offset="0.00000002"
         style="stop-color:#ffffff;stop-opacity:0.23529412"
         id="stop4158-6" />
      <stop
         offset="1"
         style="stop-color:#ffffff;stop-opacity:0.15686275"
         id="stop4160-3" />
      <stop
         offset="1"
         style="stop-color:#ffffff;stop-opacity:0.39215687"
         id="stop4162-9" />
    </linearGradient>
    <linearGradient
       gradientTransform="matrix(0.2817955,0,0,0.2800956,12.178741,12.02218)"
       gradientUnits="userSpaceOnUse"
       xlink:href="#linearGradient4333"
       id="linearGradient3030-1"
       y2="24.912279"
       x2="24.138529"
       y1="21.34207"
       x1="24.138529" />
    <linearGradient
       id="linearGradient4333">
      <stop
         id="stop4335"
         style="stop-color:#ffffff;stop-opacity:1"
         offset="0" />
      <stop
         id="stop4337"
         style="stop-color:#ffffff;stop-opacity:0.23529412"
         offset="0.00000019" />
      <stop
         id="stop4339"
         style="stop-color:#ffffff;stop-opacity:0.15686275"
         offset="1" />
      <stop
         id="stop4341"
         style="stop-color:#ffffff;stop-opacity:0.39215687"
         offset="1" />
    </linearGradient>
  </defs>
  <path
     d="m 17.999999,18.999408 a 8.9999996,3.0000001 0 1 1 -17.99999885,0 8.9999996,3.0000001 0 1 1 17.99999885,0 z"
     id="path3281"
     style="display:inline;overflow:visible;visibility:visible;opacity:0.3;fill:url(#radialGradient3275);fill-opacity:1;fill-rule:evenodd;stroke:none;stroke-width:1;marker:none;enable-background:accumulate" />
  <path
     d="m 11,3.499452 -9.4999999,9.84375 8.2500001,8.15625 9.7499998,-9.5 0,-8.5 -8.5,0 z m 4,3 c 0.828,0 1.5,0.672 1.5,1.5 0,0.828 -0.672,1.5 -1.5,1.5 -0.828,0 -1.5,-0.672 -1.5,-1.5 0,-0.828 0.672,-1.5 1.5,-1.5 z"
     id="path2463"
     style="fill:url(#linearGradient3162);fill-opacity:1;fill-rule:evenodd;stroke:url(#linearGradient3164);stroke-width:1px;stroke-linecap:butt;stroke-linejoin:miter;stroke-opacity:1" />
  <path
     d="m 11.375,4.405702 c -2.8645828,2.96875 -5.7291668,5.9375 -8.5937498,8.90625 2.322917,2.291667 4.645833,4.583333 6.96875,6.875 2.9479168,-2.864583 5.8958328,-5.729167 8.8437498,-8.59375 0,-2.395833 0,-4.791667 0,-7.1875 -2.40625,0 -4.8125,0 -7.21875,0 z"
     id="path3265"
     style="opacity:0.6;fill:none;stroke:url(#linearGradient3159);stroke-width:1px;stroke-linecap:butt;stroke-linejoin:miter;stroke-opacity:1" />
  <path
     d="m 15,5.593202 c 1.513288,-0.05335 2.761066,1.553793 2.330349,3.00682 C 17.01051,10.02584 15.254834,10.84754 13.957822,10.168016 12.622824,9.578328 12.157474,7.700929 13.072482,6.56077 13.516976,5.959282 14.251129,5.587409 15,5.593202 Z"
     id="path3294"
     style="opacity:0.6;fill:none;stroke:url(#linearGradient3156);stroke-width:1px;stroke-linecap:butt;stroke-linejoin:miter;stroke-opacity:1" />
  <path
     d="m 15.5,7.499452 c 1.109018,-0.587219 2.554024,-0.767119 3.926872,-0.797739 0.617147,-0.01376 1.240944,0.1119 1.84653,-0.03214 C 22.044144,6.486243 22.569385,5.92156 22.492551,5.405324 22.38941,4.71236 21.458534,4.2008 20.58549,3.834725 19.811082,3.510009 19.215046,2.931373 18.900054,2.32011 18.740908,2.011277 19.01884,1.6869991 19.464647,1.58745 c 0.404996,-0.090436 0.829182,-0.1261828 1.241295,-0.034356 0.627242,0.1397617 1.367682,0.3102703 1.65947,0.75466"
     id="path3298"
     style="fill:none;stroke:url(#linearGradient3153);stroke-width:0.99999994px;stroke-linecap:butt;stroke-linejoin:miter;stroke-opacity:1" />
  <g
     id="g4474">
    <path
       d="m 16.482179,16.507295 0,-3 4,0 0,3 3,0 0,4 -3,0 0,2.999991 -4,0 0,-2.999991 -2.989465,0 0,-4 2.989465,0 z"
       id="path2262"
       style="color:#000000;display:inline;overflow:visible;visibility:visible;fill:url(#radialGradient3900-3);fill-opacity:1;fill-rule:nonzero;stroke:none;stroke-width:0.98542744;marker:none;enable-background:accumulate" />
    <path
       d="m 17.5,18.004404 0,-3.504404 2,0 0,3.5 m 0,1 0,3.5 -2,0 0,-3.5"
       id="path2272"
       style="display:inline;opacity:0.5;fill:none;stroke:url(#linearGradient3030-13);stroke-width:1;stroke-linecap:butt;stroke-linejoin:miter;stroke-miterlimit:4;stroke-dasharray:none;stroke-opacity:1" />
    <path
       d="m 16.482179,16.507295 0,-3 4,0 0,3 3,0 0,4 -3,0 0,2.999991 -4,0 0,-2.999991 -2.989465,0 0,-4 2.989465,0 z"
       id="path2262-2"
       style="color:#000000;clip-rule:nonzero;display:inline;overflow:visible;visibility:visible;opacity:0.5;isolation:auto;mix-blend-mode:normal;color-interpolation:sRGB;color-interpolation-filters:linearRGB;solid-color:#000000;solid-opacity:1;fill:none;fill-opacity:1;fill-rule:nonzero;stroke:#0f5a00;stroke-width:1;stroke-linecap:round;stroke-linejoin:round;stroke-miterlimit:4;stroke-dasharray:none;stroke-dashoffset:0;stroke-opacity:1;marker:none;color-rendering:auto;image-rendering:auto;shape-rendering:auto;text-rendering:auto;enable-background:accumulate" />
    <path
       d="m 20,17.507295 2.482179,-0.0073 0,2 L 20,19.507295 m -3,0 -2.5,-0.0073 0,-2 2.5,0.0073"
       id="path2272-2"
       style="display:inline;opacity:0.5;fill:none;stroke:url(#linearGradient3030-1);stroke-width:1;stroke-linecap:butt;stroke-linejoin:miter;stroke-miterlimit:4;stroke-dasharray:none;stroke-opacity:1" />
  </g>
</svg>

<svg xmlns="http://www.w3.org/2000/svg" xmlns:xlink="http://www.w3.org/1999/xlink" viewBox="0 0 24 24"><defs><linearGradient gradientTransform="translate(-1 1)" gradientUnits="userSpaceOnUse" xlink:href="#a" id="m" y2="-.025" x2="17.592" y1="7" x1="17.592"/><linearGradient id="a"><stop offset="0" stop-color="#917f6e"/><stop offset="1" stop-color="#cbbaa9"/></linearGradient><linearGradient gradientTransform="translate(-25 -2)" gradientUnits="userSpaceOnUse" xlink:href="#b" id="l" y2="7.092" x2="40.007" y1="12.911" x1="40.007"/><linearGradient id="b"><stop offset="0" stop-color="#fff"/><stop offset="1" stop-color="#fff" stop-opacity="0"/></linearGradient><linearGradient gradientTransform="translate(-25 -2)" gradientUnits="userSpaceOnUse" xlink:href="#b" id="k" y2="22.698" x2="38.382" y1="5.906" x1="38.382"/><linearGradient gradientTransform="translate(-25 -2)" gradientUnits="userSpaceOnUse" xlink:href="#c" id="i" y2="24.034" x2="39.906" y1="6.123" x1="39.906"/><linearGradient id="c"><stop offset="0" stop-color="#fff4e9"/><stop offset="1" stop-color="#e7d6c5"/></linearGradient><linearGradient gradientTransform="translate(-25 -2)" gradientUnits="userSpaceOnUse" xlink:href="#a" id="j" y2="5" x2="32.016" y1="24.011" x1="32.016"/><linearGradient id="d"><stop offset="0"/><stop offset="1" stop-opacity="0"/></linearGradient><radialGradient gradientTransform="matrix(.9767 0 0 .32557 -1.227 12.44)" gradientUnits="userSpaceOnUse" xlink:href="#d" id="h" fy="20.147" fx="10.471" r="9.215" cy="20.147" cx="10.471"/><radialGradient gradientTransform="matrix(0 .52545 -.57163 0 46.193 -21.124)" gradientUnits="userSpaceOnUse" xlink:href="#e" id="n" fy="48.216" fx="65.297" r="31" cy="48.216" cx="65.297"/><linearGradient id="e"><stop offset="0" stop-color="#cdf87e"/><stop offset=".262" stop-color="#a2e34f"/><stop offset=".661" stop-color="#68b723"/><stop offset="1" stop-color="#1d7e0d"/></linearGradient><linearGradient gradientTransform="matrix(.2818 0 0 .28 12.197 12.015)" gradientUnits="userSpaceOnUse" xlink:href="#f" id="o" y2="35.623" x2="24.139" y1="10.631" x1="24.139"/><linearGradient id="f"><stop offset="0" stop-color="#fff"/><stop offset="0" stop-color="#fff" stop-opacity=".235"/><stop offset="1" stop-color="#fff" stop-opacity=".157"/><stop offset="1" stop-color="#fff" stop-opacity=".392"/></linearGradient><linearGradient gradientTransform="matrix(.2818 0 0 .28 12.18 12.022)" gradientUnits="userSpaceOnUse" xlink:href="#g" id="p" y2="24.912" x2="24.139" y1="21.342" x1="24.139"/><linearGradient id="g"><stop offset="0" stop-color="#fff"/><stop offset="0" stop-color="#fff" stop-opacity=".235"/><stop offset="1" stop-color="#fff" stop-opacity=".157"/><stop offset="1" stop-color="#fff" stop-opacity=".392"/></linearGradient></defs><path d="M18 19a9 3 0 1 1-18 0 9 3 0 1 1 18 0z" overflow="visible" opacity=".3" fill="url(#h)" fill-rule="evenodd"/><path d="M11 3.5l-9.5 9.843L9.75 21.5 19.5 12V3.5H11zm4 3a1.5 1.5 0 1 1 0 3 1.5 1.5 0 0 1 0-3z" fill="url(#i)" fill-rule="evenodd" stroke="url(#j)"/><path d="M11.375 4.406L2.78 13.312l6.97 6.875 8.844-8.594V4.406h-7.22z" opacity=".6" fill="none" stroke="url(#k)"/><path d="M15 5.593c1.513-.053 2.76 1.554 2.33 3.007-.32 1.426-2.075 2.248-3.372 1.568-1.335-.59-1.8-2.467-.886-3.607A2.41 2.41 0 0 1 15 5.596z" opacity=".6" fill="none" stroke="url(#l)"/><path d="M15.5 7.5c1.11-.588 2.554-.768 3.927-.798.617-.014 1.24.112 1.846-.032.77-.184 1.296-.748 1.22-1.265-.104-.693-1.034-1.204-1.908-1.57-.774-.325-1.37-.904-1.685-1.515-.16-.31.12-.633.565-.733.405-.09.83-.126 1.24-.034.628.14 1.37.31 1.66.755" fill="none" stroke="url(#m)"/><path d="M16.482 16.507v-3h4v3h3v4h-3v3h-4v-3h-2.99v-4h2.99z" color="#000" overflow="visible" fill="url(#n)"/><path d="M17.5 18.004V14.5h2V18m0 1v3.5h-2V19" opacity=".5" fill="none" stroke="url(#o)"/><path d="M16.482 16.507v-3h4v3h3v4h-3v3h-4v-3h-2.99v-4h2.99z" style="isolation:auto;mix-blend-mode:normal" color="#000" overflow="visible" opacity=".5" fill="none" stroke="#0f5a00" stroke-linecap="round" stroke-linejoin="round"/><path d="M20 17.507l2.482-.007v2L20 19.507m-3 0l-2.5-.007v-2l2.5.007" opacity=".5" fill="none" stroke="url(#p)"/></svg>
